X: 10
T: Seamus Cooley's
Z: JACKB
S: https://thesession.org/tunes/414#setting53148
R: jig
M: 6/8
L: 1/8
K: Gmaj
|:f3 d2B|ABA ABd|e3 edB|efe ede|
f3 d2B|A3 ABd|e3 ede|f2e d2e:||
|:fef a2f|fef a2f|e3 edB|efe ede|
[1 fef a2f|fef a2f|e3 ede|f2e d2e:|
[2 fef d2B|A3 ABd|e3 ede|f2e d2e||

%-------------------- TUNE SEPARATOR --------------------%

